X:1
T:Title
%%score { 1 | 2 }
L:1/8
Q:1/4=140
M:3/2
K:C
V:1 treble nm="Grand Piano"
V:2 bass 
V:1
 [G,EG]6 [G,CE]2 [CEG]2 [G,CE]2 | [CEG]4 [G,CE]4 z4 | [CE]2 [B,DG]2 [A,CF]4 [G,B,D]4 | E8 z4 | %4
w: Frederck~A.~Mann * * *||||
 A6 F2 F2 A2 | [EG]4 [CE]4 z4 | [CG]2 [CE]2 [CD]4 [B,F]4 |[M:10/4] [CE]12 z8 |[M:6/4] [A,CF]12 | %9
w: |||||
 [CE]12 |] %10
w: |
V:2
 C,6 C,2 C,2 C,2 | C,4 C,4 z4 | G,,2 G,,2 G,,4 G,,4 | [C,G,C]8 z4 | %4
 [F,A,C]6 [F,A,C]2 [F,A,C]2 [F,CF]2 | [C,C]4 [C,G,]4 z4 | [G,,E,]2 [G,,C,]2 [G,,G,]4 [G,,G,]4 | %7
[M:10/4] [C,G,]12 z8 |[M:6/4] [F,,F,]12 | [C,G,]12 |] %10

